X:983
T:Reel 983
M:4/4
K:Amin
L:1/8
ED|C2CB, CDED|D2B,G, A,DED|CB,CD EDED|CA,B,G, A,B,CD|E2EF EDCD|B,2A,B, EDB,D|GFGE EDB,D|CA,B,G, A,2|AB|cBAB cABG|AGEF GEDd|cBcd c2ed|BABc A2EF|GFEF G2EF|GAGE DCA,B,|CDEF GABA|GEDB, A,2|
